X: 16271
T: Grey Cairn, The
R: jig
M: 6/8
K: Edorian
B2 A|:GEE E GA|BAB dcA|BGE EFG|AFD DBA
GEE E GA|BAB dcA|BGE AFD|1 E3 B2 A:|2 E3 G2 A
|:B3 e3|g3 afd|gfe edB|dBA ABd
e2 e edB|dBA G2 A|BAG AFD|1 E3 G2 A:|2 E3||

